X:1
T:O salutaris hostia - Pisari
T:James Gibb editions
T:#
%%score { 1 | 2 } 3
L:1/8
Q:1/4=84
M:4/4
K:Ab
V:1 treble-8 nm="Tenor I" snm="T"
V:2 treble-8 
V:3 bass nm="Bass" snm="B"
V:1
"^O salutaris hostia""^Pasquale Pisari\n(1725-78)"!p! c4 c4- | c2 B2 c3 B | A3 B c2 c2 | %3
w: O sa\-|* lu- ta- ris|hos- ti- a, O|
 c2 B2 (ABcd | e6) d2 |[M:4/4][K:treble-8] c3 B A4 | z2 c4 (B2- | BAGF G4) | A6 d2- | %9
w: sa- lu- ta\- * * *|* ris|hos- ti- a,|Quae coe\-||li pan\-|
 d2 c2 !>!B3 B | c2 c2 (dc) (BA) | G2 A2 c4- | c2 c2 c4 | z2!mf! c4 B2 | (A4 G4) | F4 G2 A2- | %16
w: * dis o- sti-|um, quae coe\- * li *|pan- dis o\-|* sti- um;|Bel- la|pre\- *|munt ho- sti\-|
 A2 G2 A2!f! c2- | c2 B2 A4 | E2 e4 d2 | c2 B2 f4 | e3 e d2 d2 | e2 e2 z2 e2- | e2 d2!>(! c4- | %23
w: * li- a, bel\-|* la pre-|munt, bel- la|pre- munt ho-|sti- li- a, Da|ro- bur, fer|* au- xi\-|
 c2!>)! B2 c2!mf! c2 | d6 cB | c4 d2 d2- | dc B4[Q:1/4=83]!>(! A2 | %27
w: * li- um, da|ro\- * *|* bur, fer|* * * au-|
[Q:1/4=80] G3!>)![Q:1/4=79] G[Q:1/4=77] =A2!pp![Q:1/4=76] A2 | %28
w: xi- li- um, au-|
[Q:1/4=74] B3[Q:1/4=72] B[Q:1/4=72] !fermata!=A4 |] %29
w: xi- li- um.|
V:2
!p! A4 A2 G2 | F4 E4 | F3 F E2 e2 | e2 d2 c4- | c2 B2 A3 A |[M:4/4][K:treble-8] G4 z2 A2 | %6
w: O sa- lu-|ta- ris|hos- ti- a, O|sa- lu- ta\-|* ris hos- ti-|a, Quae|
 (G4 F4) | (G3 A B2) B2 | e2 E2 F4 | G2 !>!A4 G2 | A2 A2 F2 F2 | (=E2 F2) (G2 A2) | G2 G2 A4 | %13
w: coe\- *|li * * quae|coe- li pan-|dis o- sti-|um, quae coe- li|pan\- * dis *|o- sti- um;|
 z4 z2!mf! d2- | d2 c2 B4- | B2 A2 e4 | d3 d c2!f! e2- | e2 d2 (c4 | B4 A4) | G4 =A2 B2- | %20
w: Bel\-|* la pre\-|* munt ho-|sti- li- a, bel\-|* la pre\-||munt ho- sti\-|
 B2 =A2 B2 B2 | c4 B4 | _A6 G2 | F3 F =E2!mf! E2 | F2 B4 =AG | =A4 B2 (B2- | B_AGF =E)C F2- | %27
w: * li- a, Da|ro- bur,|fer au-|xi- li- um, da|ro\- * * *|* bur, fer|* * * * * au- xi\-|
 F2 =E2 F2!pp! F2 | F3 F !fermata!F4 |] %29
w: * li- um, au-|xi- li- um.|
V:3
!p! F,4 F,2 E,2 | D,4 C,4 | D,3 D, A,,4 | z6 A,2 | A,2 G,2 F,4- |[M:4/4] F,2 =E,2 F,3 F, | %6
w: O sa- lu-|ta- ris|hos- ti- a,|O|sa- lu- ta\-|* ris hos- ti-|
 C,2 C,2 (D,4 | E,6 D,2) | C,4 D,2 D,2 | !>!E,6 E,2 | A,,2 A,,2 B,,2 B,,2 | C,2 F,2 (=E,2 F,2- | %12
w: a, Quae coe\-||li pan- dis|o- sti-|um, quae coe- li|pan- dis o\- *|
 F,2) =E,2 F,2!mf! F,2- | F,2 E,2 (D,3 E, | F,6 E,2) | D,6 C,2 | B,,3 B,, A,,4 | z4 z2!f! A,2- | %18
w: * sti- um; Bel\-|* la pre\- *||munt ho-|sti- li- a,|bel\-|
 A,2 G,2 F,4 | E,6 D,2 | C,3 C, B,,2 B,,2 | A,,4 E,4 | F,6!>(! E,2 | D,3!>)! D, C,2!mf! C,2 | %24
w: * la pre-|munt ho-|sti- li- a, Da|ro- bur,|fer au-|xi- li- um, da|
 B,,4 F,2 (F,2- | F,E,D,C, B,,4) | B,,4!>(! C,4- | C,3!>)! C, F,,2!pp! F,,2 | %28
w: ro- bur, fer||au- xi\-|* li- um, au-|
 B,,3 B,, !fermata!F,,4 |] %29
w: xi- li- um.|

